X: 12
T: Mazurka in A\b Major, Op. 17, No. 3
C: Frederic Chopin
%%abc-version 2.0
%%abcx-abcm2ps-target-version 5.9.1 (29 Sep 2008)
%%abc-creator hum2abc beta
%%abcx-conversion-date 2021/01/17 12:55:00
%%abc-edited-by Craig Stuart Sapp
%%abcx-initial-encoding-date 2005/03/02/
%%gracespace 0 6 6
%%humdrum-veritas 401281838
%%humdrum-veritas-data 451554187
%%linebreak <none>
%%barnumbers 0
L: 1/4
M: 3/4
N: Derived from mazurka17-3.krn
Q: "Legato assai" 1/4=144
%%staves {1 2}
V: 1 clef=treble
V: 2 clef=bass
K: Ab
[V:1] !accent!c- [I:setbarnb 1]| 
[V:2] z | 
[V:1] c/>B/ A/B/c- ||  
[V:2] x[C2E2] & !accent![G,D_F]A,E, ||  
[V:1] c/>B/ A/=f/e | 
[V:2] x[C2E2] & [G,D_F]A,E, | 
[V:1] c/>B/ A/B/c | 
[V:2] x[C2E2] & !accent![G,D_F]A,E, | 
[V:1] !accent!E3 | 
[V:2] D3 & A,/>G,/F,/G,/E, | 
[V:1] c/>B/ A/B/c- | 
[V:2] x[C2E2] & !accent![G,D_F]A,E, | 
[V:1] x!accent!A2 & c/>B/ !accent!A/g/=f | 
[V:2] x[A,2E2] & !accent![G,D_F]C_C | 
[V:1] x!accent!A/>g/f & [GB]!accent!A2 | 
[V:2] E=D2 & [E,B,]_CE, | 
[V:1] !accent!A/g/f[GB] & !accent!A3 | 
[V:2] [_C2=D2][B,E] & zE,2 | 
[V:1] c/>B/ A/B/!accent!c- | 
[V:2] z[C2E2] & !accent![G,D_F]A,E, | 
[V:1] c/>B/ A/=f/!accent!e | 
[V:2] z[C2E2] & !accent![G,D_F]A,E, | 
[V:1] c/>B/ (3:2:7G/A/B/ =B/d/z//c// | 
[V:2] z[C2E2] & !accent![G,D_F]A,E, | 
[V:1] E3 | 
[V:2] D3 & A,/>G,/F,/G,/E, | 
[V:1] c/z//.B// A/B/!accent!c- | 
[V:2] z[C2E2] & [G,D_F]A,E, | 
[V:1] c/-c/8B/8c/8B/8 A/z//a//!accent!=f | 
[V:2] [G,D_F][A,CE][K:clef=treble][=DA_c] | 
[V:1] zc/>B/z & B/>c/dG | 
[V:2] [EG][B,F][K:clef=bass]E3//D// & zzE, | 
[V:1] d/>c/A & A2 ]|:  
[V:2] F/>E/C & A,2 ]|:  
[V:1] F [I:setbarnb 17]| 
[V:2] z | 
[V:1] .dB/>d/!accent![Ff] | 
[V:2] z.[B,,F,D].[B,,F,D] | 
[V:1] =e/>c/ _e/d/!accent![Bb] | 
[V:2] z.[B,,F,C].[B,,F,D] | 
[V:1] dB/d/!accent![Ff-] | 
[V:2] z.[B,,F,D].[B,,F,D] | 
[V:1] f2!accent!b- & =e/c/_e/d/B | 
[V:2] z.[B,,F,C].[B,,F,D] | 
[V:1] b2!accent!b- & =e/c/_e/d/B | 
[V:2] z.[B,,F,C].[B,,F,D] | 
[V:1] b2!accent!b & =e/c/_e/d/B | 
[V:2] z.[B,,F,C].[B,,F,D] | 
[V:1] d2_c | 
[V:2] z[G,B,_F][A,_CF] | 
[V:1] d_cB | 
[V:2] [G,B,_F][A,_CF][G,DF]- | 
[V:1] =c/>B/ A/B/!accent!c | 
[V:2] z[C2E2] & [G,DF]A,E, | 
[V:1] c/>B/ A/z//=f//e | 
[V:2] z[C2E2] & !accent![G,D_F]A,E, | 
[V:1] c/>B/ A/B/(3:2:4=B/d/z//c// | 
[V:2] z[C2F2] & !accent![G,D_F-]A,E, | 
[V:1] !accent!E3 | 
[V:2] D3 & A,/>G,/F,/G,/E, | 
[V:1] !wedge!c/z//B// A/B/!accent!c- | 
[V:2] z[C2E2] & !accent![G,D_F]A,E, | 
[V:1] z!accent!A2 & c/>B/ !accent!A/g/=f | 
[V:2] z[A,2E2] & !accent![G,D_F]C_C | 
[V:1] zA/>g/f & [GB]A2 | 
[V:2] z=D2 & [E,B,E]_CE, | 
[V:1] !accent!A/>g/f[GB] & !accent!A3 | 
[V:2] [_C2=D2]E & zE,B, | 
[V:1] c/>B/ A/B/c- | 
[V:2] z[C2E2] & !accent![G,D_F]A,E, | 
[V:1] c/>B/A/=f/e | 
[V:2] z[C2E2] & !accent![G,D_F]A,E, | 
[V:1] (3:2:10c/_c/B/ G/A/B/ =B/d/z//=c// | 
[V:2] z[=C2E2] & !accent![G,D_F]A,E, | 
[V:1] E3 | 
[V:2] D3 & A,/>G,/F,/G,/E, | 
[V:1] !wedge!c/z//B// A/B/c- | 
[V:2] z[C2E2] & [G,D_F]A,E, | 
[V:1] !accent!c/-c/8B/8c/8B/8 A/z//a//!accent!=f | 
[V:2] !accent![G,D_F][A,CE][K:clef=treble]!accent![=DA_c] | 
[V:1] zzc3//B// & B/>c/dG |[1 
[V:2] [EG][B,F][K:clef=bass]E3//D// & zzE, | 
[V:1] d/>c/A & Az :|][2 
[V:2] F/>E/C & A,2 :|]  
[V:1] d/>c/A2 & Az2 | 
[V:2] F/>E/C!accent!_C & A,3 | 
[V:1]  [K:E] G/>A/F3/B/ | 
[V:2]  [K:E] [B,,B,][B,,D,A,][B,,D,A,] | 
[V:1] G/z//B,//EG | 
[V:2] .E,,[E,G,][E,G,-B,-] | 
[V:1] B/>c/^A3/d/ | 
[V:2] [D,G,B,][D,^^F,D][D,F,C] | 
[V:1] B/z//D//GB | 
[V:2] .G,,[G,B,][G,B,D] | 
[V:1] d/>e/c3/f/ | 
[V:2] z[=G,B,E][F,^A,E] | 
[V:1] d/B<=Ac/ | 
[V:2] .B,,[F,=A,D][F,A,D] | 
[V:1] B/G/F/A/d/B/ | 
[V:2] B,,[F,A,D][F,A,D] | 
[V:1] A/c/B/G/F/A/ | 
[V:2] B,,[F,A,D][F,A,D] | 
[V:1] G/A<FB/ | 
[V:2] z[B,,D,A,][B,,D,A,] | 
[V:1] G/z//B,//EG | 
[V:2] .E,,[E,G,][E,G,-B,-] | 
[V:1] B/>c/^A3/d/ | 
[V:2] [D,G,B,][D,^^F,D][D,F,C] | 
[V:1] B/z//D//GB | 
[V:2] .G,,[G,B,][G,B,D] | 
[V:1] d/>e/c3/f/ | 
[V:2] z[=G,B,E][F,^A,E] | 
[V:1] d/B<=Ac/ | 
[V:2] .B,,[F,=A,D][F,A,D] | 
[V:1] B/G/FA | 
[V:2] z[B,,D,A,][B,,D,A,] | 
[V:1] G/z//B,//E ]|:  
[V:2] E,,[E,G,] ]|:  
[V:1] !accent!G- [I:setbarnb 58]| 
[V:2] z | 
[V:1] (3.G/.^A/.B/.c(3.d/.e/.f/ | 
[V:2] [F,B,E][F,B,E][F,^A,E] | 
[V:1] (3.g/.^a/.b/.c'.d' | 
[V:2] [F,CE][F,^A,E][F,B,D] | 
[V:1] (3.G/.^A/.B/ .c/>.d/ (3.e/.f/.g/ | 
[V:2] [F,B,E][F,B,E][F,^A,E] | 
[V:1] (3.^a/.b/.c'/!accent!d'2 | 
[V:2] !accent![F,E][F,B,D][F,B,D] | 
[V:1] (3.G/.^A/.B/.c(3.d/.e/.f/ | 
[V:2] [F,B,E][F,B,E][F,^A,E] | 
[V:1] (3.g/.^a/.b/.c'.d' | 
[V:2] [F,CE][F,^A,E][F,B,D] | 
[V:1] (3.G/.^A/.B/ .c/>.d/ (3.e/.f/.g/ | 
[V:2] [F,B,E][F,B,E][F,^A,E] | 
[V:1] (3^a/b/c'/.d'!accent!B | 
[V:2] !accent![F,E][B,D]z | 
[V:1] G/>=A/F3/B/ | 
[V:2] z[B,,D,=A,][B,,D,A,] | 
[V:1] !wedge!G/z//B,//E!accent!G | 
[V:2] .E,,[E,G,][E,G,-B,-] | 
[V:1] B/>c/^A3/d/ | 
[V:2] [D,G,B,][D,^^F,D][D,F,C] | 
[V:1] !wedge!B/z//D//.G!accent!B | 
[V:2] .G,,[G,B,][G,B,D] | 
[V:1] d/>e/c3/f/ | 
[V:2] z[=G,B,E][F,^A,E] | 
[V:1] d/B/=Ac | 
[V:2] .B,,[F,=A,D][F,A,D] | 
[V:1] B/G/F/A/d/B/ | 
[V:2] .B,,[F,A,D][F,A,D] | 
[V:1] A/c/B/G/F/A/ | 
[V:2] .B,,[F,A,D][F,A,D] | 
[V:1] G/A<FB/ | 
[V:2] z[B,,D,A,][B,,D,A,] | 
[V:1] G/z//B,//E!accent!G | 
[V:2] .E,,[E,G,][E,G,-B,-] | 
[V:1] B/>c/^A3/d/ | 
[V:2] [D,G,B,][D,^^F,D][D,F,C] | 
[V:1] B/z//D//G!accent!B | 
[V:2] .G,,[G,B,][G,B,D] | 
[V:1] d/>e/c3/f/ | 
[V:2] z[=G,B,E][F,^A,E] | 
[V:1] d/B<=Ac/ | 
[V:2] B,,[F,=A,D][F,A,D] | 
[V:1] B/G<FA/ |[1 
[V:2] z[B,,D,A,][B,,D,A,] | 
[V:1] G/z//B,//E :|][2 
[V:2] E,,[E,G,] :|]  
[V:1] G/z//B,//!fermata!E2 | 
[V:2] E,,[E,G,].!fermata!E | 
[V:1]  [K:Ab] c/>B/ A/B/c | 
[V:2]  [K:Ab] z[C2E2] & !accent![G,D_F]A,E, | 


